static/assets/images/networks/moonbase.svg

<svg width="256" height="256" viewBox="0 0 256 256" fill="none" xmlns="http://www.w3.org/2000/svg">
<path d="M128 256C198.692 256 256 198.692 256 128C256 57.3075 198.692 0 128 0C57.3075 0 0 57.3075 0 128C0 198.692 57.3075 256 128 256Z" fill="black"/>
<path d="M223.351 189.701H181.545C180.698 189.659 179.9 189.294 179.316 188.682C178.731 188.069 178.405 187.256 178.405 186.41C178.405 185.564 178.731 184.751 179.316 184.138C179.9 183.526 180.698 183.161 181.545 183.119H223.351C223.798 183.097 224.244 183.166 224.664 183.321C225.083 183.477 225.466 183.716 225.79 184.023C226.114 184.331 226.372 184.701 226.549 185.112C226.725 185.522 226.816 185.964 226.816 186.41C226.816 186.856 226.725 187.298 226.549 187.708C226.372 188.119 226.114 188.489 225.79 188.797C225.466 189.104 225.083 189.343 224.664 189.499C224.244 189.654 223.798 189.723 223.351 189.701Z" fill="#53CBC9"/>
<path d="M141.327 189.701H33.1614C32.7146 189.723 32.2679 189.654 31.8485 189.499C31.429 189.343 31.0457 189.104 30.7216 188.797C30.3976 188.489 30.1395 188.119 29.9632 187.708C29.7869 187.298 29.696 186.856 29.696 186.41C29.696 185.964 29.7869 185.522 29.9632 185.112C30.1395 184.701 30.3976 184.331 30.7216 184.023C31.0457 183.716 31.429 183.477 31.8485 183.321C32.2679 183.166 32.7146 183.097 33.1614 183.119H141.327C142.173 183.161 142.972 183.526 143.556 184.138C144.141 184.751 144.467 185.564 144.467 186.41C144.467 187.256 144.141 188.069 143.556 188.682C142.972 189.294 142.173 189.659 141.327 189.701Z" fill="#53CBC9"/>
<path d="M199.454 206.336C198.58 206.336 197.742 205.99 197.124 205.373C196.506 204.757 196.159 203.921 196.159 203.049V53.495C196.201 52.6502 196.567 51.8538 197.181 51.2707C197.795 50.6875 198.61 50.3623 199.458 50.3623C200.305 50.3623 201.121 50.6875 201.735 51.2707C202.349 51.8538 202.715 52.6502 202.756 53.495V203.081C202.748 203.949 202.396 204.778 201.777 205.387C201.159 205.997 200.323 206.338 199.454 206.336Z" fill="#53CBC9"/>
<path d="M162.682 114.092C161.809 114.092 160.971 113.746 160.353 113.13C159.735 112.513 159.388 111.677 159.388 110.805V53.463C159.388 52.5912 159.735 51.7552 160.353 51.1387C160.971 50.5223 161.809 50.176 162.682 50.176C163.556 50.176 164.394 50.5223 165.012 51.1387C165.63 51.7552 165.977 52.5912 165.977 53.463V110.805C165.977 111.677 165.63 112.513 165.012 113.13C164.394 113.746 163.556 114.092 162.682 114.092Z" fill="#53CBC9"/>
<path d="M54.0442 206.336C53.1696 206.336 52.3308 205.99 51.7116 205.374C51.0924 204.758 50.7435 203.921 50.7414 203.049V53.495C50.7832 52.6502 51.1489 51.8538 51.763 51.2707C52.377 50.6875 53.1924 50.3623 54.0401 50.3623C54.8879 50.3623 55.7033 50.6875 56.3173 51.2707C56.9314 51.8538 57.2972 52.6502 57.3389 53.495V203.081C57.3305 203.947 56.9796 204.775 56.3626 205.385C55.7457 205.994 54.9125 206.336 54.0442 206.336Z" fill="#53CBC9"/>
<path d="M174.803 73.5608H33.1614C32.2876 73.5608 31.4496 73.2145 30.8317 72.5981C30.2138 71.9817 29.8667 71.1456 29.8667 70.2738C29.8667 69.4021 30.2138 68.566 30.8317 67.9496C31.4496 67.3332 32.2876 66.9868 33.1614 66.9868H174.803C175.677 66.9868 176.515 67.3332 177.133 67.9496C177.751 68.566 178.098 69.4021 178.098 70.2738C178.098 71.1456 177.751 71.9817 177.133 72.5981C176.515 73.2145 175.677 73.5608 174.803 73.5608Z" fill="#53CBC9"/>
<path d="M74.0291 143.651C73.3798 143.649 72.7456 143.456 72.2061 143.096C71.6666 142.735 71.2458 142.224 70.9966 141.626C70.7474 141.028 70.6808 140.37 70.8053 139.734C70.9298 139.098 71.2398 138.514 71.6963 138.053L126.208 83.6697C126.514 83.3646 126.878 83.1227 127.278 82.9578C127.678 82.7929 128.107 82.7082 128.539 82.7086C128.972 82.7089 129.401 82.7944 129.801 82.96C130.2 83.1256 130.564 83.3681 130.869 83.6737C131.175 83.9794 131.418 84.3421 131.583 84.7412C131.748 85.1403 131.833 85.568 131.833 85.9999C131.832 86.4317 131.747 86.8592 131.581 87.2581C131.415 87.6569 131.172 88.0192 130.865 88.3243L76.3538 142.708C76.0474 143.009 75.6844 143.248 75.2855 143.41C74.8866 143.572 74.4597 143.654 74.0291 143.651Z" fill="#53CBC9"/>
<path d="M75.3037 170.395C74.6568 170.388 74.0263 170.191 73.4904 169.83C72.9545 169.468 72.5368 168.958 72.2892 168.361C72.0416 167.765 71.975 167.11 72.0976 166.476C72.2202 165.842 72.5266 165.258 72.9789 164.797L139.435 98.4732C139.741 98.1681 140.105 97.9262 140.505 97.7613C140.905 97.5964 141.334 97.5117 141.766 97.512C142.199 97.5124 142.628 97.5978 143.028 97.7634C143.427 97.929 143.791 98.1716 144.096 98.4772C144.402 98.7828 144.645 99.1455 144.81 99.5447C144.975 99.9438 145.06 100.371 145.06 100.803C145.059 101.235 144.974 101.663 144.808 102.062C144.642 102.46 144.399 102.823 144.092 103.128L77.7086 169.427C77.3944 169.743 77.0193 169.992 76.6058 170.158C76.1924 170.324 75.7493 170.405 75.3037 170.395Z" fill="#53CBC9"/>
<path d="M96.7476 176.953C96.1 176.947 95.4684 176.752 94.9313 176.391C94.3942 176.03 93.9753 175.52 93.7267 174.923C93.4782 174.326 93.4108 173.67 93.5332 173.036C93.6555 172.401 93.9621 171.817 94.4148 171.355L146.778 119.107C147.084 118.801 147.447 118.559 147.847 118.393C148.246 118.227 148.675 118.142 149.108 118.142C149.541 118.141 149.969 118.226 150.369 118.391C150.77 118.556 151.133 118.798 151.439 119.103C151.746 119.408 151.989 119.77 152.155 120.169C152.321 120.568 152.407 120.995 152.407 121.427C152.407 121.859 152.322 122.287 152.157 122.686C151.992 123.085 151.749 123.448 151.443 123.753L99.0803 175.993C98.4607 176.609 97.6218 176.954 96.7476 176.953Z" fill="#53CBC9"/>
<path d="M106.704 184.686C100.613 184.687 94.5608 183.712 88.7793 181.799C64.8824 174.05 52.954 154.296 56.9782 128.856C59.4939 114.036 66.4861 100.335 77.0192 89.5877C88.3143 78.1353 102.447 71.8252 116.805 71.8252C117.871 71.8252 118.961 71.8252 120.011 71.9292H120.107C134.353 71.9292 148.277 81.0704 157.344 96.3217C157.7 96.9144 158.212 97.3985 158.824 97.7213C159.436 98.0442 160.126 98.1936 160.817 98.1532C161.509 98.1128 162.176 97.8842 162.746 97.4922C163.317 97.1003 163.769 96.5599 164.053 95.9298C164.911 94.0264 165.657 92.2749 166.354 90.6674C171.476 78.8151 172.687 75.9999 185.714 75.9999C188.327 75.9999 191.453 76.1279 195.558 76.4078C196.616 76.4638 196.848 76.8637 196.961 77.0556C199.366 81.2703 189.906 99.1368 183.645 110.965C179.517 118.763 175.95 125.497 175.004 129.128C174.787 129.943 174.861 130.808 175.212 131.575C175.91 133.174 176.615 134.774 177.336 136.437C184.984 154.096 194.508 176.073 215.583 176.073C217.543 176.066 219.499 175.884 221.427 175.529H221.563C221.466 175.723 221.348 175.906 221.21 176.073C215.967 181.599 209.715 184.407 202.62 184.407C188.543 184.407 173.192 172.978 166.931 157.831C166.649 157.124 166.162 156.518 165.532 156.091C164.902 155.663 164.158 155.434 163.396 155.431C162.825 155.431 162.261 155.561 161.748 155.812C161.236 156.063 160.787 156.428 160.438 156.879C146.882 174.29 126.769 184.686 106.704 184.686ZM115.923 88.1162C107.762 88.1162 99.6094 92.115 92.9478 99.4727C82.6147 110.853 77.5002 128.376 79.2718 146.346C79.2966 146.619 79.3559 146.888 79.4482 147.146C84.0656 159.662 93.4929 166.556 105.99 166.556C120.725 166.556 137.086 156.415 144.902 142.443C149.784 133.718 149.8 120.682 144.95 110.733C137.832 96.1537 127.515 88.1162 115.923 88.1162Z" fill="#F45B5B"/>
</svg>

<svg xmlns="http://www.w3.org/2000/svg" fill="none" viewBox="0 0 256 256"><path fill="#000" d="M128 256c70.692 0 128-57.308 128-128S198.692 0 128 0 0 57.308 0 128s57.308 128 128 128"/><path fill="#53CBC9" d="M223.351 189.701h-41.806a3.3 3.3 0 0 1-2.229-1.019 3.29 3.29 0 0 1 0-4.544 3.3 3.3 0 0 1 2.229-1.019h41.806a3.3 3.3 0 0 1 1.313.202 3.31 3.31 0 0 1 2.152 3.089 3.29 3.29 0 0 1-2.152 3.089 3.3 3.3 0 0 1-1.313.202m-82.024 0H33.161a3.32 3.32 0 0 1-2.44-.904 3.294 3.294 0 0 1 0-4.774 3.32 3.32 0 0 1 2.44-.904h108.166a3.3 3.3 0 0 1 2.229 1.019 3.29 3.29 0 0 1 0 4.544 3.3 3.3 0 0 1-2.229 1.019"/><path fill="#53CBC9" d="M199.454 206.336a3.3 3.3 0 0 1-2.33-.963 3.28 3.28 0 0 1-.965-2.324V53.495a3.3 3.3 0 0 1 1.022-2.224 3.306 3.306 0 0 1 5.575 2.224v149.586a3.28 3.28 0 0 1-.979 2.306 3.3 3.3 0 0 1-2.323.949m-36.772-92.244a3.3 3.3 0 0 1-2.329-.962 3.3 3.3 0 0 1-.965-2.325V53.463c0-.872.347-1.708.965-2.324a3.3 3.3 0 0 1 4.659 0 3.28 3.28 0 0 1 .965 2.324v57.342c0 .872-.347 1.708-.965 2.325a3.3 3.3 0 0 1-2.33.962M54.044 206.336a3.3 3.3 0 0 1-2.332-.962 3.3 3.3 0 0 1-.97-2.325V53.495a3.3 3.3 0 0 1 1.021-2.224 3.307 3.307 0 0 1 4.554 0c.614.583.98 1.38 1.022 2.224v149.586a3.3 3.3 0 0 1-.976 2.304 3.3 3.3 0 0 1-2.319.951"/><path fill="#53CBC9" d="M174.803 73.56H33.161a3.3 3.3 0 0 1-2.33-.962 3.283 3.283 0 0 1 0-4.648 3.3 3.3 0 0 1 2.33-.963h141.642a3.3 3.3 0 0 1 2.33.963 3.283 3.283 0 0 1 0 4.648 3.3 3.3 0 0 1-2.33.963M74.03 143.651a3.29 3.29 0 0 1-3.032-2.025 3.28 3.28 0 0 1 .698-3.573l54.512-54.383a3.3 3.3 0 0 1 2.331-.961 3.3 3.3 0 0 1 2.33.965 3.28 3.28 0 0 1-.004 4.65l-54.511 54.384a3.3 3.3 0 0 1-2.325.943m1.275 26.744a3.297 3.297 0 0 1-3.206-3.919 3.3 3.3 0 0 1 .88-1.679l66.457-66.324a3.3 3.3 0 0 1 2.331-.961 3.3 3.3 0 0 1 2.33.965 3.28 3.28 0 0 1-.004 4.651l-66.383 66.299a3.28 3.28 0 0 1-2.405.968m21.444 6.558a3.3 3.3 0 0 1-1.817-.562 3.3 3.3 0 0 1-1.398-3.355 3.3 3.3 0 0 1 .882-1.681l52.363-52.248a3.298 3.298 0 0 1 5.629 2.32 3.3 3.3 0 0 1-.964 2.326l-52.363 52.24a3.3 3.3 0 0 1-2.332.96"/><path fill="#F45B5B" d="M106.704 184.686a57 57 0 0 1-17.925-2.887c-23.897-7.749-35.825-27.503-31.8-52.943a73.73 73.73 0 0 1 20.04-39.268c11.295-11.453 25.428-17.763 39.786-17.763 1.066 0 2.156 0 3.206.104h.096c14.246 0 28.17 9.141 37.237 24.393a3.79 3.79 0 0 0 3.473 1.831 3.79 3.79 0 0 0 3.236-2.223c.858-1.904 1.604-3.655 2.301-5.263C171.476 78.815 172.687 76 185.714 76c2.613 0 5.739.128 9.844.408 1.058.056 1.29.456 1.403.648 2.405 4.214-7.055 22.08-13.316 33.909-4.128 7.798-7.695 14.532-8.641 18.163a3.63 3.63 0 0 0 .208 2.447c.698 1.599 1.403 3.199 2.124 4.862 7.648 17.659 17.172 39.636 38.247 39.636a33 33 0 0 0 5.844-.544h.136a3 3 0 0 1-.353.544c-5.243 5.526-11.495 8.334-18.59 8.334-14.077 0-29.428-11.429-35.689-26.576a3.8 3.8 0 0 0-1.399-1.74 3.83 3.83 0 0 0-2.136-.66 3.74 3.74 0 0 0-2.958 1.448c-13.556 17.411-33.669 27.807-53.734 27.807m9.219-96.57c-8.161 0-16.314 3.999-22.975 11.357-10.333 11.38-15.448 28.903-13.676 46.873q.038.411.176.8c4.618 12.516 14.045 19.41 26.542 19.41 14.735 0 31.096-10.141 38.912-24.113 4.882-8.725 4.898-21.761.048-31.71-7.118-14.58-17.435-22.617-29.027-22.617"/></svg>
